X:1
Q:1/4=96
L:1/8
M:1/4
K:C clef=G2
V:1
%%MIDI program 2
F15/8|[^AD]15/8|[^AD]15/8|[c^D]15/8|
[^AD]15/16[^AD]15/16|[^AF]15/8|[A-F-]2|[AF]7/4z7/32|
[A^D]15/16[^AD]15/16|[cF]15/8|[AF]15/8|[^AF]15/8|
[cF]15/8|[d-F-]2|[d-F-]2|[d-F-]3/2[dF]3/16z3/8|
[dF]15/16[dF]15/16|[dF]15/8|[^AD]15/8|[dF]15/8|
[dF]15/8|[cA]15/8|[^A-G-]2|[^AG]7/4z7/32|
[AF]15/16[^AF]15/16|[cE]15/8|[cE]15/8|[dE]15/8|
[dE]15/8|[c-^D-]2|[c-^D-]2|[c-^D-]3/2[c^D]3/16z3/8|
[F^D]15/16[F^D]15/16|[^A-D-]2|[^AD]7/4z7/32|[^A-D-]2|
[^AD]7/8z/8[^AD]15/16|[^A-D-]2|[^A-D-]2|[^A-D-]3/2[^AD]3/16z3/8|
[^AD]31/32[c^D]15/16|[dF]15/8|[dF]15/8|[dF]15/8|
[c^D]15/8|[^A-D-]2|[^A-D-]2|[^A-D-]3/2[^AD]3/16z3/8|
[AF]31/32[^AG]15/16|[c-F-]2|[cF]7/4z7/32|[c-E-]2|
[cE]7/8z/8[cE]15/16|[c-F-]2|[c-F-]2|[c-F-]3/2[cF]3/16z3/8|
[cA]15/16[^AG]15/16|[AF]15/8|[^AE]15/8|[AF]15/8|
[GE]15/8|[F-C-]2|[F-C-]2|[F-C-]3/2[FC]3/16z3/8|
[F^D]15/16[F^D]15/16|[^AD]15/8|[^AD]15/8|[^AD]15/8|
[AF]15/8|[AF]15/8|[G-^D-]2|[G^D]7/4z7/32|
[G^D]15/16[G^D]15/16|[cE]15/8|[cE]15/8|[cF]15/8|
[^AE]15/8|[A-F-]2|[A-F-]2|[A-F-]3/2[AF]3/16z3/8|
[F^D]15/8|[^A-D-]2|[^AD]7/4z7/32|[^A-G-]2|
[^AG]7/8z/8[^AG]15/16|[^AF]15/8|[cF]15/8|[dF]15/16[dF]15/16|
[^dG]15/8|[dF]15/8|[dG]15/8|[dF]15/8|
[c^D]15/8|[^A-D-]2|[^A-D-]2|[^A-D-]3/2[^AD]3/16
L:1/8
M:1/4
K:C clef=F4
V:2
%%MIDI program 0
F,15/8|[F,^A,,]15/8|[F,^A,,]15/8|[G,C,]15/8|
[^A,^A,,]15/16[^A,^A,,]15/16|F,15/8|F,2-|F,7/4z7/32|
[CF,]15/16[^A,F,]15/16|[A,F,]15/8|[C^D,]15/8|[^A,D,]15/8|
[A,C,]15/8|[^A,-^A,,-]2|[^A,-^A,,-]2|[^A,-^A,,-]3/2[^A,^A,,]3/16z3/8|
[^A,^A,,]15/16[^A,^A,,]15/16|[^A,^A,,]15/8|[^A,^A,,]15/8|[^A,^A,,]15/8|
[^A,^A,,]15/8|[^A,D,]15/8|[^A,-^D,-]2|[^A,^D,]7/4z7/32|
[A,^D,]15/16[^A,D,]15/16|[G,C,]15/8|[G,C,]15/8|[G,C,]15/8|
[G,C,]15/8|[A,-F,-]2|[A,-F,-]2|[A,-F,-]3/2[A,F,]3/16z3/8|
[A,F,]15/16[A,F,]15/16|[F,-^A,,-]2|[F,^A,,]7/4z7/32|[F,-^A,,-]2|
[F,^A,,]7/8z/8[F,^A,,]15/16|[F,-^A,,-]2|[F,-^A,,-]2|[F,-^A,,-]3/2[F,^A,,]3/16z3/8|
[^A,G,]31/32[^A,G,]15/16|[^A,F,]15/8|[^A,F,]15/8|[^A,F,]15/8|
[A,F,]15/8|[F,-^A,,-]2|[F,-^A,,-]2|[F,-^A,,-]3/2[F,^A,,]3/16z3/8|
[CF,]31/32[^A,F,]15/16|[A,-F,-]2|[A,F,]7/4z7/32|[^A,-G,-]2|
[^A,G,]7/8z/8[^A,G,]15/16|[C-A,-]2|[C-A,-]2|[C-A,-]3/2[CA,]3/16z3/8|
[A,C,]15/16[^A,C,]15/16|[CC,]15/8|[G,C,]15/8|[A,C,]15/8|
[^A,C,]15/8|[A,F,]31/16|[A,^D,]31/16|[A,D,]15/8|
[A,C,]15/16[A,C,]15/16|[^A,^A,,]15/8|[^A,^A,,]15/8|[^A,^A,,]15/8|
[A,^A,,]15/8|[^A,D,]15/8|[G,-^D,-]2|[G,^D,]7/4z7/32|
[G,^D,]15/16[G,D,]15/16|[G,C,]15/8|[G,C,]15/8|[A,C,]15/8|
[^A,C,]15/8|[A,-F,-]2|[A,-F,-]2|[A,-F,-]3/2[A,F,]3/16z3/8|
[A,F,]15/8|[^A,-^A,,-]2|[^A,^A,,]7/4z7/32|[^A,-^D,-]2|
[^A,^D,]7/8z/8[^A,^D,]15/16|[^A,D,]15/8|[A,C,]15/8|[^A,^A,,]15/16[^A,^A,,]15/16|
[^A,C,]15/8|[^A,D,]15/8|[^A,^D,]15/8|[^A,F,]15/8|
[A,F,]15/8|[F,-^A,,-]2|[F,-^A,,-]2|[F,-^A,,-]3/2[F,^A,,]3/16


